; generated by Slic3r 0.9.9 on 2013-05-10 at 15:56:20

; layer_height = 0.4
; perimeters = 3
; top_solid_layers = 3
; bottom_solid_layers = 3
; fill_density = 0.2
; perimeter_speed = 30
; infill_speed = 60
; travel_speed = 130
; nozzle_diameter = 0.4
; filament_diameter = 2.89
; extrusion_multiplier = 1
; perimeters extrusion width = 0.42mm
; infill extrusion width = 0.42mm
; solid infill extrusion width = 0.42mm
; top infill extrusion width = 0.42mm
; first layer extrusion width = 0.80mm

G21 ; set units to millimeters
M107
M104 S200 ; set temperature
G28 ; home all axes
G1 Z5 F5000 ; lift nozzle

M109 S200 ; wait for temperature to be reached
G90 ; use absolute coordinates
G92 E0
M82 ; use absolute distances for extrusion
G1 F1800.000 E-1.00000
G92 E0
G1 Z0.400 F7800.000
G1 X68.766 Y87.203
G1 F1800.000 E1.00000
G1 X69.376 Y86.763 F540.000 E1.03275
G1 X70.216 Y86.243 E1.07578
G1 X80.876 Y80.273 E1.60784
G1 X81.366 Y80.033 E1.63160
G1 X82.036 Y79.773 E1.66290
G1 X83.086 Y79.463 E1.71058
G1 X83.676 Y79.313 E1.73709
G1 X85.496 Y78.953 E1.81788
G1 X86.486 Y78.793 E1.86155
G1 X107.636 Y76.233 E2.78932
G1 X108.726 Y76.163 E2.83688
G1 X109.396 Y76.163 E2.86606
G1 X110.626 Y76.243 E2.91974
G1 X111.056 Y76.293 E2.93859
G1 X111.706 Y76.403 E2.96730
G1 X112.826 Y76.653 E3.01727
G1 X113.266 Y76.773 E3.03713
G1 X113.896 Y76.983 E3.06605
G1 X114.476 Y77.203 E3.09307
G1 X119.146 Y79.083 E3.31230
G1 X119.826 Y79.373 E3.34449
G1 X122.276 Y80.513 E3.46217
G1 X126.346 Y82.613 E3.66161
G1 X127.776 Y83.443 E3.73361
G1 X129.346 Y84.413 E3.81398
G1 X129.896 Y84.793 E3.84309
G1 X131.086 Y85.723 E3.90886
G1 X131.806 Y86.363 E3.95082
G1 X132.366 Y86.923 E3.98530
G1 X132.756 Y87.383 E4.01157
G1 X133.146 Y87.873 E4.03884
G1 X133.836 Y88.843 E4.09068
G1 X134.326 Y89.663 E4.13228
G1 X134.976 Y90.953 E4.19518
G1 X135.966 Y93.103 E4.29826
G1 X136.156 Y93.623 E4.32237
G1 X136.406 Y94.583 E4.36557
G1 X136.546 Y95.263 E4.39580
G1 X136.826 Y97.173 E4.47987
G1 X137.276 Y102.733 E4.72279
G1 X137.296 Y103.563 E4.75895
G1 X137.256 Y104.303 E4.79122
G1 X137.106 Y105.353 E4.83741
G1 X136.986 Y105.903 E4.86192
G1 X136.766 Y106.673 E4.89680
G1 X136.506 Y107.423 E4.93136
G1 X136.256 Y108.053 E4.96088
G1 X135.866 Y108.893 E5.00121
G1 X135.606 Y109.383 E5.02537
G1 X134.916 Y110.573 E5.08527
G1 X134.326 Y111.483 E5.13250
G1 X133.926 Y112.043 E5.16247
G1 X133.186 Y112.963 E5.21389
G1 X132.376 Y113.853 E5.26629
G1 X131.476 Y114.693 E5.31990
G1 X130.886 Y115.163 E5.35275
G1 X130.466 Y115.463 E5.37523
G1 X129.766 Y115.903 E5.41124
G1 X129.416 Y116.093 E5.42858
G1 X128.626 Y116.463 E5.46657
G1 X127.146 Y117.033 E5.53563
G1 X126.606 Y117.213 E5.56042
G1 X124.026 Y117.963 E5.67743
G1 X122.136 Y118.433 E5.76224
G1 X118.626 Y119.103 E5.91785
G1 X117.696 Y119.263 E5.95895
G1 X115.686 Y119.563 E6.04745
G1 X113.916 Y119.753 E6.12497
G1 X111.196 Y119.893 E6.24358
G1 X92.326 Y120.053 E7.06536
G1 X90.906 Y120.053 E7.12720
G1 X86.076 Y119.983 E7.33756
G1 X82.956 Y119.903 E7.47348
G1 X81.376 Y119.813 E7.54239
G1 X80.466 Y119.733 E7.58218
G1 X79.006 Y119.563 E7.64619
G1 X77.736 Y119.373 E7.70211
G1 X76.666 Y119.123 E7.74996
G1 X76.326 Y119.013 E7.76552
G1 X75.676 Y118.763 E7.79585
G1 X74.696 Y118.313 E7.84281
G1 X73.876 Y117.883 E7.88313
G1 X73.346 Y117.573 E7.90987
G1 X72.746 Y117.183 E7.94103
G1 X71.856 Y116.513 E7.98955
G1 X71.426 Y116.163 E8.01369
G1 X71.096 Y115.863 E8.03311
G1 X70.446 Y115.193 E8.07376
G1 X69.666 Y114.223 E8.12797
G1 X69.296 Y113.693 E8.15612
G1 X68.846 Y112.983 E8.19272
G1 X68.536 Y112.443 E8.21984
G1 X67.826 Y111.013 E8.28937
G1 X66.496 Y107.823 E8.43988
G1 X65.226 Y104.623 E8.58980
G1 X64.696 Y103.163 E8.65744
G1 X64.436 Y102.333 E8.69532
G1 X64.326 Y101.913 E8.71423
G1 X64.076 Y100.783 E8.76463
G1 X63.896 Y99.483 E8.82178
G1 X63.826 Y98.433 E8.86761
G1 X63.806 Y97.173 E8.92248
G1 X63.856 Y95.953 E8.97566
G1 X63.916 Y95.293 E9.00452
G1 X64.076 Y94.253 E9.05034
G1 X64.196 Y93.663 E9.07656
G1 X64.276 Y93.383 E9.08924
G1 X64.466 Y92.813 E9.11541
G1 X64.706 Y92.273 E9.14114
G1 X64.986 Y91.713 E9.16841
G1 X65.456 Y90.913 E9.20881
G1 X66.046 Y90.053 E9.25423
G1 X66.826 Y89.073 E9.30877
G1 X67.626 Y88.183 E9.36089
G1 X67.866 Y87.953 E9.37536
G1 X68.683 Y87.271 E9.42172
G1 F1800.000 E8.42172
G92 E0
G1 X73.928 Y93.967 F7800.000
G1 F1800.000 E1.00000
G1 X74.421 Y93.641 F540.000 E1.02577
G1 X75.342 Y93.133 E1.07158
G1 X76.172 Y92.705 E1.11223
G1 X76.704 Y92.459 E1.13775
G1 X77.135 Y92.223 E1.15913
G1 X77.544 Y91.963 E1.18026
G1 X78.048 Y91.702 E1.20497
G1 X79.124 Y91.044 E1.25987
G1 X79.401 Y90.902 E1.27344
G1 X81.390 Y89.755 E1.37342
G1 X83.510 Y88.590 E1.47879
G1 X84.342 Y88.112 E1.52057
G1 X84.517 Y87.984 E1.52999
G1 X84.727 Y87.867 E1.54046
G1 X84.822 Y87.818 E1.54515
G1 X85.425 Y87.640 E1.57250
G1 X86.622 Y87.420 E1.62551
G1 X87.140 Y87.300 E1.64867
G1 X87.481 Y87.249 E1.66370
G1 X88.198 Y87.184 E1.69504
G1 X88.613 Y87.198 E1.71312
G1 X89.434 Y87.286 E1.74909
G1 X90.138 Y87.609 E1.78282
G1 X90.724 Y87.952 E1.81239
G1 X91.363 Y88.180 E1.84194
G1 X92.145 Y88.310 E1.87646
G1 X92.928 Y88.147 E1.91130
G1 X93.936 Y87.844 E1.95712
G1 X94.550 Y87.605 E1.98582
G1 X94.837 Y87.375 E2.00181
G1 X95.086 Y87.141 E2.01672
G1 X95.736 Y87.491 E2.04886
G1 X96.125 Y87.535 E2.06589
G1 X96.586 Y87.647 E2.08657
G1 X97.527 Y87.413 E2.12880
G1 X97.920 Y87.121 E2.15012
G1 X98.091 Y87.043 E2.15831
G1 X98.418 Y86.974 E2.17286
G1 X98.783 Y87.002 E2.18877
G1 X99.203 Y86.957 E2.20717
G1 X99.881 Y86.801 E2.23749
G1 X100.573 Y86.469 E2.27090
G1 X101.479 Y85.957 E2.31624
G1 X102.313 Y86.462 E2.35867
G1 X103.021 Y86.818 E2.39323
G1 X103.570 Y86.985 E2.41818
G1 X103.977 Y87.044 E2.43612
G1 X104.577 Y87.048 E2.46223
G1 X104.980 Y86.974 E2.48007
G1 X105.466 Y86.827 E2.50218
G1 X105.840 Y86.631 E2.52056
G1 X106.157 Y86.431 E2.53692
G1 X106.837 Y85.904 E2.57436
G1 X108.224 Y84.979 E2.64697
G1 X108.369 Y84.883 E2.65453
G1 X108.765 Y84.685 E2.67384
G1 X109.079 Y84.667 E2.68752
G1 X109.710 Y84.697 E2.71504
G1 X110.014 Y84.731 E2.72835
G1 X110.612 Y84.864 E2.75502
G1 X110.953 Y84.961 E2.77045
G1 X111.289 Y85.087 E2.78611
G1 X112.501 Y85.631 E2.84396
G1 X114.165 Y86.327 E2.92249
G1 X116.001 Y86.981 E3.00736
G1 X116.282 Y87.098 E3.02063
G1 X118.426 Y88.091 E3.12354
G1 X119.811 Y88.800 E3.19128
G1 X120.633 Y89.260 E3.23228
G1 X122.143 Y90.008 E3.30570
G1 X123.494 Y90.789 E3.37364
G1 X124.796 Y91.591 E3.44023
G1 X125.499 Y92.130 E3.47879
G1 X126.153 Y92.730 E3.51745
G1 X126.780 Y93.562 E3.56281
G1 X127.264 Y94.521 E3.60961
G1 X127.786 Y95.709 E3.66611
G1 X128.084 Y96.300 E3.69495
G1 X128.217 Y96.951 E3.72387
G1 X128.363 Y97.968 E3.76862
G1 X128.563 Y100.923 E3.89758
G1 X128.808 Y103.396 E4.00581
G1 X128.788 Y103.634 E4.01622
G1 X128.708 Y103.990 E4.03212
G1 X128.508 Y104.563 E4.05852
G1 X128.191 Y105.258 E4.09183
G1 X127.772 Y106.002 E4.12899
G1 X127.260 Y106.782 E4.16962
G1 X126.713 Y107.470 E4.20790
G1 X126.246 Y107.979 E4.23798
G1 X125.861 Y108.325 E4.26052
G1 X125.660 Y108.469 E4.27126
G1 X125.479 Y108.567 E4.28024
G1 X124.766 Y108.825 E4.31325
G1 X124.178 Y109.072 E4.34105
G1 X121.699 Y109.792 E4.45348
G1 X120.507 Y110.093 E4.50698
G1 X119.583 Y110.269 E4.54794
G1 X118.693 Y110.413 E4.58721
G1 X116.482 Y110.850 E4.68538
G1 X114.909 Y111.092 E4.75466
G1 X113.860 Y111.220 E4.80071
G1 X112.522 Y111.337 E4.85919
G1 X111.056 Y111.400 E4.92308
G1 X109.887 Y111.409 E4.97398
G1 X107.807 Y111.329 E5.06464
G1 X105.301 Y111.159 E5.17403
G1 X103.137 Y111.041 E5.26840
G1 X102.360 Y111.020 E5.30227
G1 X100.711 Y111.020 E5.37407
G1 X98.746 Y111.113 E5.45974
G1 X94.642 Y111.436 E5.63901
G1 X93.123 Y111.527 E5.70526
G1 X92.252 Y111.555 E5.74324
G1 X90.994 Y111.563 E5.79803
G1 X86.304 Y111.498 E6.00228
G1 X83.428 Y111.422 E6.12757
G1 X82.103 Y111.350 E6.18533
G1 X81.243 Y111.274 E6.22295
G1 X80.051 Y111.132 E6.27522
G1 X79.123 Y110.996 E6.31606
G1 X78.586 Y110.755 E6.34167
G1 X78.113 Y110.511 E6.36487
G1 X77.712 Y110.282 E6.38498
G1 X77.270 Y109.971 E6.40851
G1 X76.964 Y109.706 E6.42617
G1 X76.733 Y109.472 E6.44046
G1 X76.431 Y109.086 E6.46181
G1 X76.177 Y108.692 E6.48225
G1 X75.976 Y108.339 E6.49994
G1 X75.636 Y107.654 E6.53322
G1 X74.797 Y105.690 E6.62623
G1 X73.135 Y101.485 E6.82313
G1 X72.678 Y100.212 E6.88204
G1 X72.502 Y99.577 E6.91072
G1 X72.435 Y99.217 E6.92667
G1 X72.371 Y98.756 E6.94692
G1 X72.330 Y98.251 E6.96899
G1 X72.331 Y97.723 E6.99201
G1 X72.368 Y97.107 E7.01888
G1 X72.337 Y96.991 E7.02413
G1 X72.346 Y96.478 E7.04644
G1 X72.454 Y95.805 E7.07612
G1 X72.545 Y95.620 E7.08513
G1 X73.026 Y94.920 E7.12210
G1 X73.571 Y94.280 E7.15872
G1 X73.845 Y94.035 E7.17472
G1 X73.486 Y93.407 F7800.000
G1 X74.057 Y93.026 F540.000 E7.20462
G1 X75.016 Y92.497 E7.25232
G1 X75.854 Y92.065 E7.29336
G1 X76.381 Y91.821 E7.31864
G1 X76.772 Y91.608 E7.33803
G1 X77.188 Y91.343 E7.35954
G1 X77.697 Y91.080 E7.38448
G1 X78.771 Y90.423 E7.43931
G1 X79.061 Y90.274 E7.45349
G1 X81.044 Y89.130 E7.55319
G1 X83.156 Y87.969 E7.65815
G1 X83.944 Y87.517 E7.69773
G1 X84.138 Y87.377 E7.70813
G1 X84.389 Y87.238 E7.72064
G1 X84.543 Y87.154 E7.72825
G1 X85.247 Y86.947 E7.76023
G1 X86.480 Y86.720 E7.81483
G1 X87.006 Y86.598 E7.83834
G1 X87.422 Y86.536 E7.85666
G1 X88.175 Y86.469 E7.88959
G1 X88.662 Y86.485 E7.91077
G1 X89.614 Y86.586 E7.95249
G1 X90.487 Y86.985 E7.99430
G1 X91.020 Y87.300 E8.02123
G1 X91.536 Y87.484 E8.04510
G1 X92.145 Y87.583 E8.07197
G1 X92.731 Y87.460 E8.09803
G1 X93.169 Y87.315 E8.11813
G1 X93.445 Y87.251 E8.13049
G1 X94.189 Y86.979 E8.16497
G1 X95.066 Y86.225 E8.21533
G1 X95.327 Y86.451 E8.23040
G1 X95.953 Y86.797 E8.26156
G1 X96.249 Y86.831 E8.27452
G1 X96.584 Y86.912 E8.28951
G1 X97.216 Y86.754 E8.31788
G1 X97.655 Y86.443 E8.34134
G1 X97.882 Y86.358 E8.35189
G1 X98.211 Y86.279 E8.36662
G1 X98.403 Y86.257 E8.37501
G1 X98.772 Y86.285 E8.39113
G1 X99.081 Y86.252 E8.40466
G1 X99.647 Y86.121 E8.42996
G1 X100.248 Y85.833 E8.45898
G1 X100.793 Y85.532 E8.48613
G1 X101.057 Y85.376 E8.49946
G1 X101.425 Y85.093 E8.51967
G1 X102.670 Y85.842 E8.58296
G1 X103.278 Y86.150 E8.61261
G1 X103.726 Y86.286 E8.63300
G1 X104.015 Y86.328 E8.64575
G1 X104.526 Y86.331 E8.66799
G1 X104.811 Y86.279 E8.68062
G1 X105.201 Y86.161 E8.69837
G1 X105.477 Y86.016 E8.71193
G1 X105.746 Y85.846 E8.72577
G1 X106.437 Y85.312 E8.76382
G1 X107.990 Y84.278 E8.84506
G1 X108.478 Y84.030 E8.86889
G1 X108.655 Y83.974 E8.87699
G1 X109.076 Y83.952 E8.89535
G1 X109.767 Y83.985 E8.92549
G1 X110.119 Y84.024 E8.94089
G1 X110.791 Y84.173 E8.97088
G1 X111.173 Y84.281 E8.98817
G1 X111.561 Y84.426 E9.00619
G1 X112.784 Y84.975 E9.06458
G1 X114.423 Y85.660 E9.14195
G1 X116.258 Y86.314 E9.22676
G1 X116.575 Y86.446 E9.24174
G1 X118.739 Y87.449 E9.34559
G1 X120.148 Y88.171 E9.41453
G1 X120.965 Y88.628 E9.45529
G1 X122.478 Y89.377 E9.52883
G1 X123.863 Y90.178 E9.59846
G1 X125.208 Y91.007 E9.66729
G1 X125.951 Y91.576 E9.70804
G1 X126.662 Y92.229 E9.75009
G1 X127.043 Y92.704 E9.77661
G1 X127.402 Y93.209 E9.80359
G1 X127.913 Y94.223 E9.85304
G1 X128.432 Y95.403 E9.90916
G1 X128.759 Y96.052 E9.94085
G1 X128.919 Y96.816 E9.97482
G1 X129.074 Y97.895 E10.02228
G1 X129.277 Y100.887 E10.15291
G1 X129.522 Y103.347 E10.26055
G1 X129.493 Y103.754 E10.27833
G1 X129.396 Y104.186 E10.29762
G1 X129.172 Y104.829 E10.32726
G1 X128.828 Y105.583 E10.36333
G1 X128.381 Y106.376 E10.40298
G1 X127.837 Y107.203 E10.44608
G1 X127.162 Y108.043 E10.49299
G1 X126.742 Y108.495 E10.51989
G1 X126.313 Y108.879 E10.54495
G1 X126.031 Y109.082 E10.56010
G1 X125.774 Y109.220 E10.57277
G1 X125.023 Y109.493 E10.60759
G1 X124.403 Y109.750 E10.63681
G1 X121.885 Y110.481 E10.75100
G1 X120.656 Y110.792 E10.80620
G1 X119.713 Y110.971 E10.84801
G1 X118.819 Y111.116 E10.88746
G1 X117.160 Y111.453 E10.96116
G1 X116.388 Y111.590 E10.99531
G1 X115.019 Y111.798 E11.05562
G1 X113.935 Y111.931 E11.10316
G1 X112.575 Y112.049 E11.16261
G1 X111.088 Y112.114 E11.22742
G1 X109.871 Y112.124 E11.28043
G1 X109.030 Y112.100 E11.31708
G1 X107.557 Y112.031 E11.38129
G1 X105.256 Y111.872 E11.48174
G1 X103.108 Y111.755 E11.57541
G1 X101.395 Y111.726 E11.65004
G1 X100.099 Y111.754 E11.70649
G1 X98.796 Y111.825 E11.76329
G1 X94.701 Y112.148 E11.94218
G1 X93.251 Y112.243 E12.00547
G1 X91.000 Y112.277 E12.10351
G1 X86.279 Y112.212 E12.30910
G1 X83.407 Y112.136 E12.43421
G1 X82.052 Y112.062 E12.49333
G1 X81.169 Y111.985 E12.53191
G1 X79.953 Y111.840 E12.58527
G1 X78.938 Y111.689 E12.62996
G1 X78.267 Y111.395 E12.66184
G1 X77.763 Y111.134 E12.68659
G1 X77.315 Y110.877 E12.70905
G1 X76.825 Y110.530 E12.73521
G1 X76.379 Y110.138 E12.76107
G1 X76.193 Y109.941 E12.77286
G1 X75.845 Y109.494 E12.79755
G1 X75.566 Y109.061 E12.81996
G1 X75.345 Y108.675 E12.83933
G1 X74.984 Y107.944 E12.87482
G1 X74.136 Y105.963 E12.96866
G1 X72.471 Y101.748 E13.16604
G1 X71.995 Y100.420 E13.22749
G1 X71.804 Y99.730 E13.25864
G1 X71.730 Y99.331 E13.27631
G1 X71.661 Y98.835 E13.29813
G1 X71.615 Y98.282 E13.32230
G1 X71.617 Y97.700 E13.34763
G1 X71.648 Y97.180 E13.37031
G1 X71.612 Y97.047 E13.37635
G1 X71.632 Y96.413 E13.40396
G1 X71.761 Y95.594 E13.44004
G1 X71.926 Y95.260 E13.45627
G1 X72.450 Y94.496 E13.49663
G1 X73.055 Y93.785 E13.53727
G1 X73.402 Y93.474 E13.55759
G1 X73.044 Y92.846 F7800.000
G1 X73.686 Y92.415 F378.000 E13.59126
G1 X74.690 Y91.861 E13.64122
G1 X75.536 Y91.425 E13.68265
G1 X76.058 Y91.184 E13.70769
G1 X76.408 Y90.993 E13.72508
G1 X76.833 Y90.723 E13.74697
G1 X77.346 Y90.457 E13.77213
G1 X78.418 Y89.801 E13.82690
G1 X78.720 Y89.646 E13.84169
G1 X80.698 Y88.505 E13.94110
G1 X82.802 Y87.349 E14.04566
G1 X83.547 Y86.922 E14.08303
G1 X83.760 Y86.771 E14.09443
G1 X84.230 Y86.510 E14.11782
G1 X85.070 Y86.255 E14.15606
G1 X86.339 Y86.020 E14.21224
G1 X86.872 Y85.896 E14.23611
G1 X87.345 Y85.826 E14.25691
G1 X88.150 Y85.754 E14.29211
G1 X88.710 Y85.772 E14.31652
G1 X89.736 Y85.880 E14.36143
G1 X89.842 Y85.906 E14.36620
G1 X90.837 Y86.362 E14.41383
G1 X91.316 Y86.647 E14.43813
G1 X91.709 Y86.787 E14.45630
G1 X92.145 Y86.856 E14.47553
G1 X92.533 Y86.772 E14.49281
G1 X92.979 Y86.626 E14.51325
G1 X93.255 Y86.562 E14.52560
G1 X93.829 Y86.353 E14.55216
G1 X94.573 Y85.715 E14.59489
G1 X94.848 Y85.558 E14.60866
G1 X95.067 Y85.499 E14.61855
G1 X95.202 Y85.530 E14.62456
G1 X95.550 Y85.707 E14.64160
G1 X95.747 Y85.870 E14.65270
G1 X96.170 Y86.103 E14.67376
G1 X96.374 Y86.126 E14.68266
G1 X96.581 Y86.176 E14.69196
G1 X96.905 Y86.096 E14.70648
G1 X97.337 Y85.800 E14.72929
G1 X97.662 Y85.677 E14.74443
G1 X98.085 Y85.575 E14.76338
G1 X98.387 Y85.539 E14.77663
G1 X98.761 Y85.568 E14.79295
G1 X98.959 Y85.547 E14.80161
G1 X99.412 Y85.441 E14.82188
G1 X99.923 Y85.197 E14.84651
G1 X100.439 Y84.911 E14.87224
G1 X100.657 Y84.783 E14.88322
G1 X101.112 Y84.453 E14.90773
G1 X101.395 Y84.360 E14.92070
G1 X101.509 Y84.379 E14.92572
G1 X101.800 Y84.490 E14.93930
G1 X103.028 Y85.223 E15.00156
G1 X103.534 Y85.481 E15.02632
G1 X103.881 Y85.587 E15.04213
G1 X104.053 Y85.612 E15.04969
G1 X104.475 Y85.614 E15.06808
G1 X104.937 Y85.494 E15.08885
G1 X105.115 Y85.400 E15.09760
G1 X105.334 Y85.261 E15.10892
G1 X106.038 Y84.720 E15.14757
G1 X107.611 Y83.672 E15.22989
G1 X108.236 Y83.356 E15.26039
G1 X108.519 Y83.264 E15.27335
G1 X109.071 Y83.237 E15.29742
G1 X109.825 Y83.273 E15.33028
G1 X110.224 Y83.317 E15.34779
G1 X110.502 Y83.370 E15.36011
G1 X111.394 Y83.601 E15.40025
G1 X111.833 Y83.765 E15.42063
G1 X113.067 Y84.319 E15.47954
G1 X114.681 Y84.994 E15.55575
G1 X116.515 Y85.648 E15.64050
G1 X116.868 Y85.795 E15.65718
G1 X119.052 Y86.807 E15.76199
G1 X120.485 Y87.541 E15.83213
G1 X121.297 Y87.995 E15.87264
G1 X122.813 Y88.746 E15.94631
G1 X124.231 Y89.566 E16.01764
G1 X125.619 Y90.423 E16.08870
G1 X126.403 Y91.022 E16.13165
G1 X127.146 Y91.699 E16.17541
G1 X127.615 Y92.277 E16.20783
G1 X128.026 Y92.860 E16.23891
G1 X128.563 Y93.924 E16.29080
G1 X129.077 Y95.096 E16.34655
G1 X129.436 Y95.806 E16.38117
G1 X129.621 Y96.681 E16.42011
G1 X129.784 Y97.821 E16.47027
G1 X129.834 Y98.362 E16.49393
G1 X129.991 Y100.852 E16.60258
G1 X130.236 Y103.299 E16.70965
G1 X130.236 Y103.545 E16.72040
G1 X130.198 Y103.875 E16.73484
G1 X130.084 Y104.383 E16.75751
G1 X129.836 Y105.094 E16.79032
